src/assets/img/providers-white/superlottotv.svg

<svg width="134" height="26" viewBox="0 0 134 26" fill="none" xmlns="http://www.w3.org/2000/svg">
<g clip-path="url(#clip0_4319_7946)">
<path fill-rule="evenodd" clip-rule="evenodd" d="M5.55952 10.2022C6.9682 10.6026 8.2123 10.9561 8.31978 12.1116C8.44683 13.4382 6.86319 13.8725 5.77887 13.7218C4.5813 13.5583 3.53637 13.0383 2.6441 12.1618C2.63038 12.148 2.61359 12.1376 2.5951 12.1314C2.5766 12.1253 2.55692 12.1236 2.53764 12.1264C2.51836 12.1293 2.50003 12.1367 2.48413 12.148C2.46824 12.1593 2.45523 12.1741 2.44615 12.1914L0.759102 15.3055C0.734721 15.3516 0.728174 15.405 0.740739 15.4552C0.753303 15.5055 0.784078 15.549 0.827056 15.5773C3.42115 17.2939 6.76865 17.9025 9.66705 16.6498C11.7274 15.7595 12.7595 14.0518 12.7634 11.5266C12.7692 8.16533 10.08 7.38756 7.44706 6.62604L7.20887 6.55705C6.91539 6.47236 6.63963 6.3463 6.3816 6.17887C5.75819 5.77705 5.48637 4.95273 6.07137 4.39728C7.19115 3.33364 9.08501 3.87728 10.19 4.73705C10.2157 4.75693 10.2455 4.77099 10.2771 4.77823C10.3088 4.78547 10.3415 4.78571 10.3731 4.77895C10.4047 4.77218 10.4343 4.75857 10.4599 4.73907C10.4854 4.71958 10.5062 4.69468 10.5209 4.66614L12.0189 1.77069C12.076 1.66038 12.0484 1.57766 11.9361 1.52251C9.0466 0.145688 5.10819 -0.519085 2.75342 1.94501C1.65827 3.0894 1.1944 4.60311 1.36183 6.48614C1.58962 9.07396 3.71558 9.67816 5.55952 10.2022ZM24.7471 9.57655C24.7441 11.9697 24.0646 14.094 21.0627 13.5386C19.2132 13.1959 18.9591 11.2961 18.9561 9.71246C18.9463 6.7067 18.9443 3.77579 18.9502 0.919729C18.9522 0.799578 18.8921 0.739502 18.77 0.739502H14.8641C14.7518 0.739502 14.6957 0.795638 14.6957 0.907911C14.7134 3.77776 14.7114 6.81306 14.6898 10.0138C14.6661 13.4972 15.6264 16.1475 19.4525 17.0427C22.9152 17.8522 27.8168 17.0397 28.7357 12.8531C28.8992 12.1125 28.9829 11.3473 28.9868 10.5575C28.9967 7.2917 28.9986 4.07814 28.9927 0.916774C28.9927 0.798592 28.9346 0.739502 28.8184 0.739502H24.9096C24.8665 0.739502 24.8251 0.756623 24.7946 0.787098C24.7642 0.817573 24.7471 0.858905 24.7471 0.902003C24.749 3.71079 24.749 6.60231 24.7471 9.57655ZM35.9389 11.6862L35.9418 16.6912C35.9418 16.8133 35.8798 16.8743 35.7557 16.8743L31.8971 16.8773C31.7611 16.8773 31.6932 16.8093 31.6932 16.6734V0.828194C31.6932 0.806756 31.7015 0.786148 31.7164 0.770716C31.7312 0.755284 31.7515 0.74623 31.773 0.745465C34.4084 0.725768 36.7642 0.729708 38.8402 0.757283C41.7711 0.795692 43.86 2.47387 44.1171 5.39887C44.3091 7.55865 43.73 9.83661 41.6766 10.8618C40.2524 11.5739 38.5883 11.551 36.9561 11.5285C36.6717 11.5246 36.3883 11.5207 36.1073 11.5207C35.995 11.5207 35.9389 11.5758 35.9389 11.6862ZM35.9389 4.23478V8.00478C35.9389 8.03613 35.9513 8.06619 35.9735 8.08835C35.9956 8.11052 36.0257 8.12297 36.057 8.12297H37.8268C38.3275 8.12297 38.8077 7.939 39.1618 7.61154C39.5159 7.28407 39.7148 6.83993 39.7148 6.37683V5.86274C39.7148 5.39963 39.5159 4.9555 39.1618 4.62803C38.8077 4.30057 38.3275 4.1166 37.8268 4.1166H36.057C36.0257 4.1166 35.9956 4.12905 35.9735 4.15122C35.9513 4.17338 35.9389 4.20344 35.9389 4.23478ZM50.3068 6.882L50.3098 4.38541C50.3098 4.35877 50.3204 4.33322 50.3392 4.31438C50.358 4.29554 50.3836 4.28496 50.4102 4.28496H55.2646C55.2777 4.28496 55.2908 4.28236 55.303 4.27731C55.3152 4.27226 55.3263 4.26486 55.3356 4.25553C55.3449 4.2462 55.3523 4.23513 55.3574 4.22294C55.3624 4.21076 55.365 4.19769 55.365 4.1845V0.839955C55.365 0.813313 55.3544 0.787764 55.3356 0.768925C55.3167 0.750086 55.2912 0.739502 55.2646 0.739502H46.1232C46.0965 0.739502 46.071 0.750086 46.0522 0.768925C46.0333 0.787764 46.0227 0.813313 46.0227 0.839955V16.7768C46.0227 16.8034 46.0333 16.829 46.0522 16.8478C46.071 16.8666 46.0965 16.8772 46.1232 16.8772H55.2616C55.2882 16.8772 55.3138 16.8666 55.3326 16.8478C55.3515 16.829 55.3621 16.8034 55.3621 16.7768L55.368 13.4322C55.368 13.4056 55.3574 13.38 55.3385 13.3612C55.3197 13.3424 55.2942 13.3318 55.2675 13.3318L50.4073 13.3377C50.3806 13.3377 50.3551 13.3271 50.3363 13.3083C50.3174 13.2894 50.3068 13.2639 50.3068 13.2372V10.6225C50.3068 10.5958 50.3174 10.5703 50.3363 10.5514C50.3551 10.5326 50.3806 10.522 50.4073 10.522L55.0105 10.525C55.0237 10.525 55.0367 10.5224 55.0489 10.5173C55.0611 10.5123 55.0722 10.5049 55.0815 10.4955C55.0908 10.4862 55.0982 10.4751 55.1033 10.4629C55.1083 10.4508 55.1109 10.4377 55.1109 10.4245L55.105 7.08291C55.105 7.05627 55.0944 7.03072 55.0756 7.01188C55.0567 6.99304 55.0312 6.98246 55.0046 6.98246H50.4073C50.3806 6.98246 50.3551 6.97187 50.3363 6.95303C50.3174 6.9342 50.3068 6.90864 50.3068 6.882ZM62.2314 10.8854L62.2373 16.6911C62.2373 16.8132 62.1762 16.8743 62.0541 16.8743L58.1925 16.8772C58.1384 16.8772 58.0866 16.8557 58.0484 16.8175C58.0101 16.7793 57.9886 16.7274 57.9886 16.6733V0.825166C57.9886 0.804792 57.9967 0.785254 58.0111 0.770848C58.0255 0.756441 58.0451 0.748347 58.0655 0.748347C60.4291 0.72668 62.7455 0.73062 65.0145 0.760165C67.26 0.786756 69.4464 2.08676 69.9014 4.43266C70.3889 6.95289 69.3252 9.77744 66.5952 10.2177C66.4849 10.2354 66.4642 10.2876 66.5332 10.3743L71.4968 16.762C71.5052 16.7725 71.5105 16.7851 71.5119 16.7984C71.5134 16.8118 71.5111 16.8253 71.5052 16.8374C71.4993 16.8494 71.4902 16.8596 71.4787 16.8666C71.4673 16.8737 71.4541 16.8774 71.4407 16.8772H66.4061C66.3717 16.8773 66.3378 16.8687 66.3073 16.8522C66.2769 16.8357 66.2509 16.8118 66.2318 16.7827L62.3909 10.8381C62.2845 10.6746 62.2314 10.6904 62.2314 10.8854ZM62.2432 4.03085L62.2255 7.87175C62.2254 7.89162 62.2331 7.91073 62.2469 7.92505C62.2607 7.93938 62.2795 7.94781 62.2993 7.94857L63.363 7.95448C63.6549 7.95625 63.9443 7.91057 64.2146 7.82005C64.4849 7.72952 64.7308 7.59593 64.9382 7.42691C65.1456 7.25788 65.3106 7.05674 65.4235 6.83498C65.5365 6.61321 65.5953 6.37518 65.5966 6.13448V5.80357C65.5992 5.31803 65.3679 4.8511 64.9535 4.50539C64.5391 4.15969 63.9755 3.9635 63.3866 3.95994L62.323 3.95403C62.3126 3.95363 62.3023 3.95532 62.2927 3.959C62.283 3.96269 62.2742 3.96828 62.2667 3.97546C62.2593 3.98263 62.2533 3.99123 62.2493 4.00075C62.2453 4.01027 62.2432 4.0205 62.2432 4.03085ZM133.002 16.8866C133.023 16.8661 133.034 16.8383 133.034 16.8093V0.848821C133.034 0.819828 133.023 0.792021 133.002 0.77152C132.982 0.751018 132.954 0.739502 132.925 0.739502H72.3211C72.2922 0.739502 72.2643 0.751018 72.2439 0.77152C72.2234 0.792021 72.2118 0.819828 72.2118 0.848821V16.8093C72.2118 16.8383 72.2234 16.8661 72.2439 16.8866C72.2643 16.9071 72.2922 16.9186 72.3211 16.9186H132.925C132.954 16.9186 132.982 16.9071 133.002 16.8866ZM95.8647 6.13524C96.2345 6.98021 96.4257 7.8862 96.4273 8.80148C96.4289 9.71677 96.2409 10.6234 95.874 11.4697C95.5071 12.3159 94.9685 13.0852 94.2889 13.7336C93.6094 14.382 92.8022 14.8968 91.9135 15.2486C91.0247 15.6004 90.0719 15.7824 89.1092 15.784C88.1466 15.7857 87.1931 15.6071 86.3031 15.2584C85.4132 14.9097 84.6042 14.3977 83.9224 13.7517C83.2406 13.1057 82.6993 12.3383 82.3295 11.4933C81.9596 10.6483 81.7684 9.74235 81.7668 8.82707C81.7652 7.91178 81.9533 7.00514 82.3201 6.15888C82.687 5.31262 83.2257 4.54334 83.9052 3.89495C84.5847 3.24656 85.3919 2.73176 86.2806 2.37994C87.1694 2.02812 88.1223 1.84618 89.0849 1.8445C90.0475 1.84282 91.001 2.02143 91.891 2.37014C92.7809 2.71885 93.5899 3.23083 94.2717 3.87685C94.9535 4.52287 95.4948 5.29026 95.8647 6.13524ZM130.911 6.11389C131.284 6.95685 131.478 7.8614 131.483 8.7759C131.488 9.69039 131.303 10.5969 130.939 11.4437C130.575 12.2906 130.039 13.0611 129.362 13.7113C128.684 14.3615 127.879 14.8787 126.992 15.2333C126.104 15.5879 125.152 15.773 124.189 15.7781C123.227 15.7831 122.272 15.608 121.381 15.2627C120.49 14.9174 119.679 14.4086 118.995 13.7655C118.311 13.1225 117.767 12.3576 117.395 11.5147C117.022 10.6717 116.827 9.76715 116.823 8.85265C116.818 7.93816 117.003 7.03162 117.367 6.18481C117.731 5.33799 118.266 4.56749 118.944 3.91728C119.621 3.26707 120.426 2.74989 121.314 2.39527C122.201 2.04065 123.154 1.85554 124.116 1.8505C125.079 1.84546 126.033 2.02059 126.924 2.3659C127.815 2.7112 128.626 3.21992 129.31 3.863C129.994 4.50609 130.538 5.27094 130.911 6.11389ZM77.2589 12.421C77.2783 12.4404 77.3046 12.4513 77.3321 12.4513L81.2646 12.4484C81.292 12.4484 81.3183 12.4593 81.3377 12.4787C81.3571 12.498 81.368 12.5244 81.368 12.5518V15.2256C81.368 15.2531 81.3571 15.2794 81.3377 15.2988C81.3183 15.3182 81.292 15.3291 81.2646 15.3291L73.9343 15.3261C73.9069 15.3261 73.8806 15.3152 73.8612 15.2958C73.8418 15.2764 73.8309 15.2501 73.8309 15.2227V2.397C73.8309 2.36958 73.8418 2.34327 73.8612 2.32388C73.8806 2.30449 73.9069 2.29359 73.9343 2.29359L77.1282 2.28768C77.1418 2.28768 77.1552 2.29036 77.1678 2.29555C77.1803 2.30075 77.1917 2.30837 77.2013 2.31797C77.2109 2.32757 77.2185 2.33897 77.2237 2.35152C77.2289 2.36407 77.2316 2.37751 77.2316 2.39109L77.2286 12.3479C77.2286 12.3753 77.2395 12.4016 77.2589 12.421ZM99.7686 5.19815C99.7515 5.18097 99.7282 5.17132 99.7039 5.17132H97.0418C97.0175 5.17132 96.9942 5.16167 96.9771 5.14449C96.9599 5.12732 96.9502 5.10402 96.9502 5.07973L96.9561 2.38223C96.9561 2.35794 96.9658 2.33464 96.983 2.31746C97.0002 2.30029 97.0234 2.29064 97.0477 2.29064H105.947C105.971 2.29064 105.994 2.30029 106.012 2.31746C106.029 2.33464 106.038 2.35794 106.038 2.38223L106.033 5.07973C106.033 5.10402 106.023 5.12732 106.006 5.14449C105.988 5.16167 105.965 5.17132 105.941 5.17132H103.32C103.296 5.17132 103.273 5.18097 103.255 5.19815C103.238 5.21532 103.229 5.23862 103.229 5.26291L103.232 15.2404C103.232 15.2647 103.222 15.288 103.205 15.3052C103.188 15.3224 103.164 15.332 103.14 15.332L99.887 15.3231C99.8628 15.3231 99.8395 15.3135 99.8223 15.2963C99.8051 15.2791 99.7955 15.2558 99.7955 15.2315V5.26291C99.7955 5.23862 99.7858 5.21532 99.7686 5.19815ZM113.486 5.19728C113.47 5.2139 113.46 5.23645 113.46 5.25996V15.2404C113.46 15.2479 113.459 15.2554 113.457 15.2626L113.456 15.268L113.453 15.2743C113.449 15.2851 113.443 15.2949 113.434 15.3031C113.431 15.3064 113.427 15.3095 113.424 15.3123C113.42 15.3147 113.417 15.3169 113.413 15.3188L113.409 15.3207L113.406 15.3223C113.395 15.3268 113.383 15.3291 113.372 15.3291L110.113 15.3231C110.107 15.3231 110.101 15.3226 110.096 15.3215C110.09 15.3203 110.084 15.3186 110.079 15.3164C110.074 15.3144 110.069 15.312 110.065 15.3093L110.06 15.3056C110.056 15.303 110.053 15.3002 110.05 15.2972C110.045 15.2925 110.041 15.2872 110.038 15.2816C110.035 15.2774 110.033 15.273 110.031 15.2684C110.026 15.2577 110.024 15.2461 110.024 15.2345L110.027 5.25996C110.027 5.23645 110.018 5.2139 110.001 5.19728C109.984 5.18066 109.962 5.17132 109.938 5.17132H107.27C107.247 5.17132 107.224 5.16198 107.208 5.14536C107.191 5.12874 107.182 5.10619 107.182 5.08268V2.37928C107.182 2.35577 107.191 2.33322 107.208 2.3166C107.224 2.29998 107.247 2.29064 107.27 2.29064H116.181C116.205 2.29064 116.227 2.29998 116.244 2.3166C116.261 2.33322 116.27 2.35577 116.27 2.37928L116.267 5.08268C116.267 5.10619 116.258 5.12874 116.241 5.14536C116.224 5.16198 116.202 5.17132 116.178 5.17132H113.549C113.525 5.17132 113.503 5.18066 113.486 5.19728ZM127.871 8.61535C127.966 10.6332 126.379 12.3475 124.325 12.4444C122.271 12.5412 120.529 10.9839 120.434 8.96608C120.339 6.94821 121.927 5.2339 123.98 5.13705C126.034 5.04019 127.776 6.59749 127.871 8.61535ZM89.0558 12.4482C91.1101 12.4697 92.7925 10.8509 92.8137 8.83253C92.8348 6.81417 91.1866 5.16052 89.1324 5.13901C87.0781 5.11749 85.3957 6.73626 85.3745 8.75463C85.3534 10.773 87.0015 12.4266 89.0558 12.4482ZM87.1897 25.5759H85.6825L83.3205 19.3359H85.0127L86.4581 23.7603H86.4934L87.93 19.3359H89.5957L87.1897 25.5759ZM76.3098 25.5759V20.6227H78.0725V19.3359H73.04V20.6227H74.8027V25.5759H76.3098Z" fill="white"/>
</g>
<defs>
<clipPath id="clip0_4319_7946">
<rect width="132.659" height="26" fill="white" transform="translate(0.670471 0.000976562)"/>
</clipPath>
</defs>
</svg>

<svg xmlns="http://www.w3.org/2000/svg" width="134" height="26" fill="none"><g clip-path="url(#a)"><path fill="#fff" fill-rule="evenodd" d="M5.56 10.202c1.408.4 2.652.754 2.76 1.91.127 1.326-1.457 1.76-2.541 1.61-1.198-.164-2.243-.684-3.135-1.56a.125.125 0 0 0-.106-.036.124.124 0 0 0-.092.065L.76 15.305a.211.211 0 0 0-.018.15c.012.05.043.094.086.122 2.594 1.717 5.942 2.325 8.84 1.073 2.06-.89 3.092-2.598 3.096-5.123.006-3.362-2.683-4.14-5.316-4.901l-.238-.069a3.082 3.082 0 0 1-.827-.378c-.624-.402-.896-1.226-.31-1.782 1.12-1.063 3.013-.52 4.118.34a.224.224 0 0 0 .183.042.219.219 0 0 0 .148-.113l1.498-2.895c.057-.11.03-.193-.083-.248C9.046.146 5.108-.52 2.753 1.945 1.658 3.089 1.194 4.603 1.362 6.486c.228 2.588 2.354 3.192 4.198 3.716Zm19.187-.625c-.003 2.393-.682 4.517-3.684 3.962-1.85-.343-2.104-2.243-2.107-3.827-.01-3.005-.012-5.936-.006-8.792.002-.12-.058-.18-.18-.18h-3.906c-.112 0-.168.056-.168.168.017 2.87.015 5.905-.006 9.106-.024 3.483.936 6.134 4.763 7.029 3.462.81 8.364-.003 9.283-4.19.163-.74.247-1.506.25-2.296.01-3.265.013-6.479.007-9.64 0-.118-.058-.177-.175-.177H24.91a.163.163 0 0 0-.163.162c.002 2.809.002 5.7 0 8.675Zm11.192 2.11.003 5.004c0 .122-.062.183-.186.183l-3.859.003c-.136 0-.204-.068-.204-.204V.828a.083.083 0 0 1 .08-.083c2.635-.02 4.991-.015 7.067.012 2.931.039 5.02 1.717 5.277 4.642.192 2.16-.387 4.438-2.44 5.463-1.425.712-3.089.689-4.72.666-.285-.003-.569-.007-.85-.007-.112 0-.168.055-.168.165Zm0-7.452v3.77a.118.118 0 0 0 .118.118h1.77c.5 0 .98-.184 1.335-.511.354-.328.553-.772.553-1.235v-.514c0-.463-.2-.908-.553-1.235a1.969 1.969 0 0 0-1.335-.511h-1.77a.118.118 0 0 0-.118.118Zm14.368 2.647.003-2.497a.1.1 0 0 1 .1-.1h4.855a.1.1 0 0 0 .1-.1V.84a.1.1 0 0 0-.1-.1h-9.142a.1.1 0 0 0-.1.1v15.937a.1.1 0 0 0 .1.1h9.139a.1.1 0 0 0 .1-.1l.006-3.345a.1.1 0 0 0-.1-.1l-4.86.006a.1.1 0 0 1-.101-.1v-2.615a.1.1 0 0 1 .1-.101l4.604.003a.1.1 0 0 0 .07-.03.101.101 0 0 0 .03-.07l-.006-3.342a.1.1 0 0 0-.1-.1h-4.598a.1.1 0 0 1-.1-.101Zm11.924 4.003.006 5.806c0 .122-.06.183-.183.183l-3.861.003a.204.204 0 0 1-.204-.204V.825a.077.077 0 0 1 .077-.077 313.3 313.3 0 0 1 6.948.012c2.246.027 4.432 1.327 4.887 3.673.488 2.52-.576 5.344-3.306 5.785-.11.017-.13.07-.062.156l4.964 6.388a.07.07 0 0 1 .008.075.07.07 0 0 1-.064.04h-5.035a.206.206 0 0 1-.174-.094l-3.841-5.945c-.106-.163-.16-.148-.16.047Zm.012-6.854-.018 3.84a.076.076 0 0 0 .074.078l1.064.005c.292.002.581-.043.852-.134.27-.09.516-.224.723-.393.208-.17.373-.37.486-.592.112-.222.171-.46.173-.7v-.331c.002-.486-.23-.953-.643-1.299-.415-.345-.978-.542-1.567-.545l-1.064-.006a.076.076 0 0 0-.08.077Zm70.759 12.856a.107.107 0 0 0 .032-.078V.85a.107.107 0 0 0-.032-.077.108.108 0 0 0-.077-.032H72.321a.11.11 0 0 0-.11.109v15.96a.11.11 0 0 0 .11.11h60.604a.108.108 0 0 0 .077-.032ZM95.865 6.135c.37.845.56 1.751.562 2.666a6.674 6.674 0 0 1-.553 2.669 6.957 6.957 0 0 1-1.585 2.264 7.366 7.366 0 0 1-2.376 1.515 7.66 7.66 0 0 1-2.804.535 7.66 7.66 0 0 1-2.806-.526 7.367 7.367 0 0 1-2.38-1.506 6.956 6.956 0 0 1-1.594-2.259 6.673 6.673 0 0 1-.562-2.666 6.675 6.675 0 0 1 .553-2.668 6.958 6.958 0 0 1 1.585-2.264 7.366 7.366 0 0 1 2.376-1.515 7.661 7.661 0 0 1 2.804-.535 7.66 7.66 0 0 1 2.806.525c.89.349 1.699.86 2.38 1.507a6.958 6.958 0 0 1 1.594 2.258Zm35.046-.021c.373.843.567 1.747.572 2.662a6.658 6.658 0 0 1-.544 2.668 6.956 6.956 0 0 1-1.577 2.267 7.38 7.38 0 0 1-2.37 1.522 7.672 7.672 0 0 1-5.611.03 7.369 7.369 0 0 1-2.386-1.498 6.937 6.937 0 0 1-1.6-2.25 6.647 6.647 0 0 1-.028-5.33 6.941 6.941 0 0 1 1.577-2.268 7.358 7.358 0 0 1 2.37-1.522 7.665 7.665 0 0 1 2.802-.544 7.665 7.665 0 0 1 2.808.515 7.369 7.369 0 0 1 2.386 1.497 6.956 6.956 0 0 1 1.601 2.25ZM77.259 12.42c.02.02.046.03.073.03l3.933-.003a.103.103 0 0 1 .103.104v2.674a.103.103 0 0 1-.103.103l-7.33-.003a.103.103 0 0 1-.104-.103V2.397a.103.103 0 0 1 .103-.103l3.194-.006a.104.104 0 0 1 .104.103l-.003 9.957c0 .027.01.054.03.073Zm22.51-7.223a.091.091 0 0 0-.065-.027h-2.662a.091.091 0 0 1-.092-.091l.006-2.698a.092.092 0 0 1 .092-.091h8.899c.024 0 .047.01.065.026.017.018.026.04.026.065l-.005 2.698a.092.092 0 0 1-.092.091h-2.621a.094.094 0 0 0-.065.027.092.092 0 0 0-.026.065l.003 9.977a.093.093 0 0 1-.092.092l-3.253-.009a.092.092 0 0 1-.091-.091v-9.97a.092.092 0 0 0-.027-.064Zm13.717 0a.091.091 0 0 0-.026.062v9.98a.083.083 0 0 1-.003.023l-.001.005-.003.006a.072.072 0 0 1-.019.03l-.01.008-.011.007-.004.002-.003.001a.092.092 0 0 1-.034.007l-3.259-.006a.082.082 0 0 1-.034-.007.076.076 0 0 1-.014-.007l-.005-.003a.06.06 0 0 1-.01-.009.06.06 0 0 1-.012-.015.07.07 0 0 1-.007-.014.08.08 0 0 1-.007-.034l.003-9.974a.09.09 0 0 0-.089-.089h-2.668a.087.087 0 0 1-.062-.026.087.087 0 0 1-.026-.062V2.379c0-.023.009-.046.026-.062a.087.087 0 0 1 .062-.026h8.911a.09.09 0 0 1 .089.088l-.003 2.704a.09.09 0 0 1-.089.089h-2.629a.09.09 0 0 0-.063.025Zm14.385 3.417c.095 2.018-1.492 3.732-3.546 3.83-2.054.096-3.796-1.461-3.891-3.479-.095-2.018 1.493-3.732 3.546-3.829 2.054-.097 3.796 1.46 3.891 3.478Zm-38.815 3.833c2.054.022 3.737-1.597 3.758-3.615.02-2.019-1.627-3.672-3.682-3.694-2.054-.022-3.736 1.597-3.758 3.616-.02 2.018 1.627 3.672 3.682 3.693ZM87.19 25.576h-1.507l-2.363-6.24h1.693l1.445 4.424h.035l1.437-4.424h1.666l-2.406 6.24Zm-10.88 0v-4.953h1.763v-1.287H73.04v1.287h1.763v4.953h1.507Z" clip-rule="evenodd"/></g><defs><clipPath id="a"><path fill="#fff" d="M.67.001h132.66v26H.67z"/></clipPath></defs></svg>
